src/assets/home/footer/googleplay.svg

<svg width="226" height="68" viewBox="0 0 226 68" fill="none" xmlns="http://www.w3.org/2000/svg">
<g clip-path="url(#clip0_458_1947)">
<path d="M217.032 67.3346H8.96711C4.38969 67.3346 0.644531 63.5846 0.644531 59.0013V9.0013C0.644531 4.41797 4.38969 0.667969 8.96711 0.667969H217.032C221.609 0.667969 225.354 4.41797 225.354 9.0013V59.0013C225.354 63.5846 221.609 67.3346 217.032 67.3346Z" fill="url(#paint0_radial_458_1947)"/>
<path d="M79.5763 17.7339C79.5763 19.1339 79.1601 20.2505 78.3279 21.0672C77.3958 22.0505 76.164 22.5505 74.666 22.5505C73.2178 22.5505 72.0027 22.0505 70.9874 21.0505C69.972 20.0505 69.4727 18.8005 69.4727 17.3339C69.4727 15.8505 69.972 14.6172 70.9874 13.6172C72.0027 12.6172 73.2178 12.1172 74.666 12.1172C75.3817 12.1172 76.0641 12.2505 76.7133 12.5339C77.3625 12.8172 77.8785 13.1839 78.2779 13.6505L77.3958 14.5339C76.7299 13.7505 75.8311 13.3505 74.666 13.3505C73.6173 13.3505 72.7018 13.7172 71.9361 14.4672C71.1705 15.2005 70.7876 16.1672 70.7876 17.3505C70.7876 18.5339 71.1705 19.5005 71.9361 20.2339C72.7018 20.9672 73.6173 21.3505 74.666 21.3505C75.7812 21.3505 76.7133 20.9839 77.4623 20.2339C77.945 19.7505 78.228 19.0672 78.2946 18.2005H74.666V17.0005H79.5097C79.543 17.2505 79.5763 17.5005 79.5763 17.7339Z" fill="white" stroke="white" stroke-width="0.2" stroke-miterlimit="10"/>
<path d="M87.2477 13.5693H82.7036V16.7359H86.7983V17.9359H82.7036V21.1026H87.2477V22.3359H81.4219V12.3359H87.2477V13.5693Z" fill="white" stroke="white" stroke-width="0.2" stroke-miterlimit="10"/>
<path d="M92.6601 22.3359H91.3784V13.5693H88.582V12.3359H95.4398V13.5693H92.6434V22.3359H92.6601Z" fill="white" stroke="white" stroke-width="0.2" stroke-miterlimit="10"/>
<path d="M100.414 22.3359V12.3359H101.696V22.3359H100.414Z" fill="white" stroke="white" stroke-width="0.2" stroke-miterlimit="10"/>
<path d="M107.391 22.3359H106.109V13.5693H103.312V12.3359H110.17V13.5693H107.374V22.3359H107.391Z" fill="white" stroke="white" stroke-width="0.2" stroke-miterlimit="10"/>
<path d="M123.171 21.0339C122.189 22.0505 120.974 22.5505 119.51 22.5505C118.045 22.5505 116.83 22.0505 115.848 21.0339C114.866 20.0172 114.383 18.7839 114.383 17.3339C114.383 15.8839 114.866 14.6339 115.848 13.6339C116.83 12.6172 118.045 12.1172 119.51 12.1172C120.958 12.1172 122.173 12.6172 123.171 13.6339C124.154 14.6505 124.653 15.8839 124.653 17.3339C124.636 18.8005 124.154 20.0339 123.171 21.0339ZM116.796 20.2005C117.529 20.9505 118.444 21.3172 119.51 21.3172C120.575 21.3172 121.49 20.9505 122.223 20.2005C122.955 19.4505 123.338 18.5005 123.338 17.3339C123.338 16.1672 122.972 15.2172 122.223 14.4672C121.49 13.7172 120.575 13.3505 119.51 13.3505C118.444 13.3505 117.529 13.7172 116.796 14.4672C116.064 15.2172 115.681 16.1672 115.681 17.3339C115.681 18.5005 116.064 19.4505 116.796 20.2005Z" fill="white" stroke="white" stroke-width="0.2" stroke-miterlimit="10"/>
<path d="M126.449 22.3359V12.3359H128.014L132.874 20.1193H132.924L132.874 18.1859V12.3359H134.156V22.3359H132.824L127.748 14.1859H127.698L127.748 16.1193V22.3359H126.449Z" fill="white" stroke="white" stroke-width="0.2" stroke-miterlimit="10"/>
<path d="M114.065 36.9154C110.154 36.9154 106.958 39.8987 106.958 43.9987C106.958 48.082 110.154 51.082 114.065 51.082C117.977 51.082 121.173 48.082 121.173 43.9987C121.173 39.8987 117.977 36.9154 114.065 36.9154ZM114.065 48.2987C111.918 48.2987 110.071 46.532 110.071 43.9987C110.071 41.4487 111.918 39.6987 114.065 39.6987C116.213 39.6987 118.06 41.4487 118.06 43.9987C118.06 46.532 116.196 48.2987 114.065 48.2987ZM98.5521 36.9154C94.6405 36.9154 91.4446 39.8987 91.4446 43.9987C91.4446 48.082 94.6405 51.082 98.5521 51.082C102.464 51.082 105.66 48.082 105.66 43.9987C105.66 39.8987 102.464 36.9154 98.5521 36.9154ZM98.5521 48.2987C96.4049 48.2987 94.5573 46.532 94.5573 43.9987C94.5573 41.4487 96.4049 39.6987 98.5521 39.6987C100.699 39.6987 102.547 41.4487 102.547 43.9987C102.547 46.532 100.699 48.2987 98.5521 48.2987ZM80.1093 39.0987V42.0987H87.3C87.0836 43.782 86.5177 45.032 85.6688 45.882C84.6201 46.932 82.9889 48.082 80.1259 48.082C75.6983 48.082 72.2361 44.5154 72.2361 40.082C72.2361 35.6487 75.6983 32.082 80.1259 32.082C82.5062 32.082 84.2539 33.0154 85.5356 34.232L87.6495 32.1154C85.8519 30.3987 83.4716 29.082 80.1093 29.082C74.0505 29.082 68.957 34.0154 68.957 40.0987C68.957 46.1654 74.0505 51.1154 80.1093 51.1154C83.3884 51.1154 85.8519 50.0487 87.7827 48.032C89.7635 46.0487 90.3794 43.2487 90.3794 40.9987C90.3794 40.2987 90.3294 39.6487 90.2129 39.1154H80.1093V39.0987ZM155.529 41.432C154.946 39.8487 153.148 36.9154 149.47 36.9154C145.824 36.9154 142.795 39.782 142.795 43.9987C142.795 47.9654 145.791 51.082 149.819 51.082C153.065 51.082 154.946 49.0987 155.712 47.9487L153.298 46.332C152.499 47.5154 151.401 48.2987 149.819 48.2987C148.238 48.2987 147.106 47.5654 146.39 46.1487L155.861 42.232L155.529 41.432ZM145.874 43.7987C145.791 41.0654 147.988 39.6654 149.57 39.6654C150.801 39.6654 151.85 40.282 152.199 41.1654L145.874 43.7987ZM138.184 50.6654H141.297V29.832H138.184V50.6654ZM133.091 38.4987H132.974C132.275 37.6654 130.944 36.9154 129.246 36.9154C125.7 36.9154 122.455 40.032 122.455 44.032C122.455 47.9987 125.7 51.0987 129.246 51.0987C130.927 51.0987 132.275 50.3487 132.974 49.482H133.074V50.4987C133.074 53.2154 131.626 54.6654 129.296 54.6654C127.398 54.6654 126.216 53.2987 125.734 52.1487L123.021 53.282C123.803 55.1654 125.867 57.4654 129.296 57.4654C132.941 57.4654 136.02 55.3154 136.02 50.082V37.3487H133.074V38.4987H133.091ZM129.512 48.2987C127.365 48.2987 125.567 46.4987 125.567 44.032C125.567 41.532 127.365 39.7154 129.512 39.7154C131.626 39.7154 133.291 41.5487 133.291 44.032C133.307 46.4987 131.643 48.2987 129.512 48.2987ZM170.11 29.832H162.669V50.6654H165.782V42.7654H170.126C173.572 42.7654 176.951 40.2654 176.951 36.2987C176.951 32.332 173.539 29.832 170.11 29.832ZM170.176 39.8654H165.765V32.7154H170.176C172.507 32.7154 173.822 34.6487 173.822 36.282C173.822 37.9154 172.507 39.8654 170.176 39.8654ZM189.385 36.882C187.138 36.882 184.807 37.882 183.842 40.0654L186.605 41.2154C187.188 40.0654 188.286 39.682 189.435 39.682C191.033 39.682 192.681 40.6487 192.697 42.3654V42.582C192.131 42.2654 190.933 41.782 189.451 41.782C186.472 41.782 183.459 43.4154 183.459 46.4654C183.459 49.2487 185.889 51.0487 188.619 51.0487C190.7 51.0487 191.865 50.1154 192.581 49.0154H192.681V50.632H195.677V42.6487C195.693 38.9487 192.93 36.882 189.385 36.882ZM189.002 48.2987C187.987 48.2987 186.572 47.782 186.572 46.532C186.572 44.932 188.336 44.3154 189.867 44.3154C191.232 44.3154 191.882 44.6154 192.697 45.0154C192.464 46.932 190.8 48.2987 189.002 48.2987ZM206.613 37.332L203.05 46.3654H202.951L199.255 37.332H195.91L201.453 49.9654L198.29 56.982H201.536L210.075 37.332H206.613ZM178.649 50.6654H181.761V29.832H178.649V50.6654Z" fill="white"/>
<path d="M18.0235 13.2339C17.5408 13.7505 17.2578 14.5505 17.2578 15.5672V52.4339C17.2578 53.4672 17.5408 54.2672 18.0235 54.7672L18.14 54.8839L38.7634 34.2505V34.0005V33.7505L18.14 13.1172L18.0235 13.2339Z" fill="white"/>
<path d="M46.3666 41.1339L39.4922 34.2505V34.0005V33.7505L46.3666 26.8672L46.5164 26.9505L54.6559 31.5839C56.9862 32.9005 56.9862 35.0672 54.6559 36.4005L46.5164 41.0339L46.3666 41.1339Z" fill="white"/>
<path d="M45.7876 42.7013L38.7633 35.668L18.0234 56.4346C18.7891 57.2513 20.0541 57.3513 21.4856 56.5346L45.7876 42.7013Z" fill="white"/>
<path d="M45.7886 25.3005L21.47 11.4671C20.0385 10.6505 18.7735 10.7505 18.0078 11.5671L38.7643 32.3338L45.7886 25.3005Z" fill="white"/>
</g>
<defs>
<radialGradient id="paint0_radial_458_1947" cx="0" cy="0" r="1" gradientUnits="userSpaceOnUse" gradientTransform="translate(186.935 21.577) rotate(176.111) scale(150.424 384.561)">
<stop stop-color="#C59439"/>
<stop offset="1" stop-color="#E9CF9F"/>
</radialGradient>
<clipPath id="clip0_458_1947">
<rect width="226" height="68" fill="white"/>
</clipPath>
</defs>
</svg>

<svg width="226" height="68" fill="none" xmlns="http://www.w3.org/2000/svg"><g clip-path="url(#a)"><path d="M217.032 67.335H8.967C4.39 67.335.645 63.585.645 59v-50C.645 4.418 4.39.668 8.967.668h208.065c4.577 0 8.322 3.75 8.322 8.333v50c0 4.584-3.745 8.334-8.322 8.334Z" fill="url(#b)"/><path d="M79.576 17.734c0 1.4-.416 2.516-1.248 3.333-.932.983-2.164 1.483-3.662 1.483-1.448 0-2.663-.5-3.679-1.5-1.015-1-1.514-2.25-1.514-3.716 0-1.483.499-2.717 1.514-3.717 1.016-1 2.23-1.5 3.679-1.5.716 0 1.398.133 2.047.417.65.283 1.166.65 1.565 1.116l-.882.884c-.666-.784-1.565-1.184-2.73-1.184a3.769 3.769 0 0 0-2.73 1.117c-.766.733-1.148 1.7-1.148 2.883 0 1.184.383 2.15 1.148 2.884.766.733 1.681 1.116 2.73 1.116 1.115 0 2.047-.366 2.796-1.116.483-.484.766-1.167.833-2.034h-3.629V17h4.844c.033.25.066.5.066.734ZM87.248 13.57h-4.544v3.166h4.094v1.2h-4.094v3.167h4.544v1.233h-5.826v-10h5.826v1.233ZM92.66 22.336h-1.282v-8.767h-2.796v-1.233h6.858v1.233h-2.797v8.767h.017ZM100.414 22.336v-10h1.282v10h-1.282ZM107.391 22.336h-1.282v-8.767h-2.797v-1.233h6.858v1.233h-2.796v8.767h.017ZM123.171 21.034c-.982 1.017-2.197 1.517-3.661 1.517-1.465 0-2.68-.5-3.662-1.517-.982-1.017-1.465-2.25-1.465-3.7 0-1.45.483-2.7 1.465-3.7.982-1.017 2.197-1.517 3.662-1.517 1.448 0 2.663.5 3.661 1.517.983 1.016 1.482 2.25 1.482 3.7-.017 1.466-.499 2.7-1.482 3.7Zm-6.375-.833c.733.75 1.648 1.116 2.714 1.116 1.065 0 1.98-.366 2.713-1.116.732-.75 1.115-1.7 1.115-2.867s-.366-2.117-1.115-2.867c-.733-.75-1.648-1.117-2.713-1.117-1.066 0-1.981.367-2.714 1.117-.732.75-1.115 1.7-1.115 2.867 0 1.166.383 2.117 1.115 2.867ZM126.449 22.336v-10h1.565l4.86 7.783h.05l-.05-1.933v-5.85h1.282v10h-1.332l-5.076-8.15h-.05l.05 1.933v6.217h-1.299Z" fill="#fff" stroke="#fff" stroke-width=".2" stroke-miterlimit="10"/><path d="M114.065 36.915c-3.911 0-7.107 2.984-7.107 7.084 0 4.083 3.196 7.083 7.107 7.083 3.912 0 7.108-3 7.108-7.083 0-4.1-3.196-7.084-7.108-7.084Zm0 11.384c-2.147 0-3.994-1.767-3.994-4.3 0-2.55 1.847-4.3 3.994-4.3 2.148 0 3.995 1.75 3.995 4.3 0 2.533-1.864 4.3-3.995 4.3ZM98.552 36.915c-3.912 0-7.107 2.984-7.107 7.084 0 4.083 3.196 7.083 7.107 7.083 3.912 0 7.108-3 7.108-7.083 0-4.1-3.196-7.084-7.108-7.084Zm0 11.384c-2.147 0-3.995-1.767-3.995-4.3 0-2.55 1.848-4.3 3.995-4.3 2.147 0 3.995 1.75 3.995 4.3 0 2.533-1.848 4.3-3.995 4.3Zm-18.443-9.2v3H87.3c-.216 1.683-.782 2.933-1.631 3.783-1.049 1.05-2.68 2.2-5.543 2.2-4.428 0-7.89-3.567-7.89-8s3.462-8 7.89-8c2.38 0 4.128.933 5.41 2.15l2.114-2.117c-1.798-1.716-4.178-3.033-7.54-3.033-6.06 0-11.153 4.933-11.153 11.017 0 6.066 5.094 11.016 11.152 11.016 3.28 0 5.743-1.066 7.674-3.083 1.98-1.983 2.596-4.783 2.596-7.033 0-.7-.05-1.35-.166-1.884H80.109V39.1Zm75.42 2.333c-.583-1.583-2.381-4.517-6.059-4.517-3.646 0-6.675 2.867-6.675 7.084 0 3.966 2.996 7.083 7.024 7.083 3.246 0 5.127-1.983 5.893-3.133l-2.414-1.617c-.799 1.183-1.897 1.967-3.479 1.967-1.581 0-2.713-.734-3.429-2.15l9.471-3.917-.332-.8Zm-9.655 2.367c-.083-2.734 2.114-4.134 3.696-4.134 1.231 0 2.28.617 2.629 1.5l-6.325 2.634Zm-7.69 6.866h3.113V29.832h-3.113v20.833ZM133.091 38.5h-.117c-.699-.834-2.03-1.584-3.728-1.584-3.546 0-6.791 3.117-6.791 7.117 0 3.967 3.245 7.067 6.791 7.067 1.681 0 3.029-.75 3.728-1.617h.1v1.017c0 2.716-1.448 4.166-3.778 4.166-1.898 0-3.08-1.366-3.562-2.516l-2.713 1.133c.782 1.883 2.846 4.183 6.275 4.183 3.645 0 6.724-2.15 6.724-7.383V37.349h-2.946v1.15h.017Zm-3.579 9.8c-2.147 0-3.945-1.8-3.945-4.267 0-2.5 1.798-4.317 3.945-4.317 2.114 0 3.779 1.834 3.779 4.317.016 2.467-1.648 4.267-3.779 4.267Zm40.598-18.467h-7.441v20.833h3.113v-7.9h4.344c3.446 0 6.825-2.5 6.825-6.466 0-3.967-3.412-6.467-6.841-6.467Zm.066 10.033h-4.411v-7.15h4.411c2.331 0 3.646 1.934 3.646 3.567 0 1.633-1.315 3.583-3.646 3.583Zm19.209-2.983c-2.247 0-4.578 1-5.543 3.183l2.763 1.15c.583-1.15 1.681-1.533 2.83-1.533 1.598 0 3.246.967 3.262 2.683v.217c-.566-.317-1.764-.8-3.246-.8-2.979 0-5.992 1.633-5.992 4.683 0 2.784 2.43 4.584 5.16 4.584 2.081 0 3.246-.934 3.962-2.034h.1v1.617h2.996v-7.983c.016-3.7-2.747-5.767-6.292-5.767Zm-.383 11.417c-1.015 0-2.43-.517-2.43-1.767 0-1.6 1.764-2.217 3.295-2.217 1.365 0 2.015.3 2.83.7-.233 1.917-1.897 3.284-3.695 3.284Zm17.611-10.967-3.563 9.033h-.099l-3.696-9.033h-3.345l5.543 12.633-3.163 7.017h3.246l8.539-19.65h-3.462Zm-27.964 13.333h3.112V29.832h-3.112v20.833ZM18.023 13.234c-.482.517-.765 1.316-.765 2.333v36.867c0 1.033.283 1.833.765 2.333l.117.117L38.763 34.25v-.5L18.14 13.117l-.117.117ZM46.367 41.134l-6.875-6.883v-.5l6.875-6.884.15.084 8.139 4.633c2.33 1.317 2.33 3.483 0 4.817l-8.14 4.633-.15.1ZM45.788 42.701l-7.025-7.033-20.74 20.767c.766.816 2.031.916 3.463.1L45.788 42.7ZM45.789 25.3 21.47 11.467c-1.431-.817-2.697-.716-3.462.1l20.756 20.767L45.79 25.3Z" fill="#fff"/></g><defs><radialGradient id="b" cx="0" cy="0" r="1" gradientUnits="userSpaceOnUse" gradientTransform="matrix(-150.07762 10.20232 -26.08237 -383.67548 186.935 21.577)"><stop stop-color="#C59439"/><stop offset="1" stop-color="#E9CF9F"/></radialGradient><clipPath id="a"><path fill="#fff" d="M0 0h226v68H0z"/></clipPath></defs></svg>
